X: 1
T: O'er The Isles To America
M: 4/4
L: 1/8
R: reel
K: Amix
g|:f2 ed eAAB|A2 AB e2 eg|(3fgf ed eAAB|dBGB d2 dg|
faed cAAB|(3AAA AB e2 ef|gfed efge|dBGB d2 dg||
|:fd (3ddd fded|cAAc e2 eg|fd (3ddd fded|BGGB d2 dg|
fd (3ddd fded|cAAc e2 ef|gfed efge|dBGB d2 z2||
